X:760
M:C
L:1/8
K:C
f|e>c e/f/g e<c c>f|e<c c>f (3efg (3fga|e>c e/f/g e<c c>e|f>dB>G B/c/d f2|
e>c e/f/g e<c c>f|e<c c>f (3efg (3fga|(3gfe (3dcB (3cBA (3GFE|

